X: 10718
T: Doyle's
R: polka
M: 2/4
K: Amajor
ce A>B|ce fe|c/d/e A>B|cB BA/B/|ce A>B|ce fe|ce fg|ba ae:|
|:ce fe|ae fe|c/d/e A>B|cB BA/B/|ce fe|ae fe|ce fg|ba ae:|

